icons/rocket-line.svg

<svg xmlns="http://www.w3.org/2000/svg" width="24" height="24" fill="none"><g clip-path="url(#a)"><g><path fill="#121212" d="M5.00032 13C5.00032 7.91199 7.90332 3.56399 12.0003 1.81799C16.0973 3.56399 19.0003 7.91199 19.0003 13C19.0003 13.823 18.9243 14.626 18.7803 15.403L20.7203 17.235C20.8005 17.3109 20.8533 17.4112 20.8705 17.5203C20.8877 17.6294 20.8683 17.7411 20.8153 17.838L18.3203 22.413C18.2831 22.4813 18.2305 22.54 18.1666 22.5844C18.1027 22.6288 18.0294 22.6576 17.9524 22.6687C17.8754 22.6798 17.7969 22.6727 17.7231 22.6481C17.6493 22.6235 17.5823 22.5821 17.5273 22.527L15.2933 20.293C15.1058 20.1054 14.8515 20 14.5863 20H9.41432C9.14912 20 8.89481 20.1054 8.70732 20.293L6.47332 22.527C6.41837 22.5821 6.35134 22.6235 6.27755 22.6481C6.20376 22.6727 6.12524 22.6798 6.04825 22.6687C5.97126 22.6576 5.89791 22.6288 5.83403 22.5844C5.77016 22.54 5.71753 22.4813 5.68032 22.413L3.18532 17.838C3.13234 17.7411 3.11293 17.6294 3.13012 17.5203C3.1473 17.4112 3.20012 17.3109 3.28032 17.235L5.22032 15.403C5.07732 14.626 5.00032 13.823 5.00032 13ZM6.47632 19.696L7.29332 18.879C7.8558 18.3163 8.61873 18.0002 9.41432 18H14.5863C15.3819 18.0002 16.1448 18.3163 16.7073 18.879L17.5243 19.696L18.5063 17.896L17.4063 16.856C17.1632 16.6264 16.9815 16.3395 16.8779 16.0215C16.7743 15.7036 16.7521 15.3647 16.8133 15.036C16.9373 14.372 17.0003 13.691 17.0003 13C17.0003 9.12999 15.0053 5.69999 12.0003 4.03999C8.99532 5.69999 7.00032 9.12999 7.00032 13C7.00032 13.691 7.06332 14.372 7.18732 15.037C7.24851 15.3657 7.22629 15.7046 7.12269 16.0225C7.0191 16.3405 6.83743 16.6274 6.59432 16.857L5.49432 17.896L6.47632 19.696ZM12.0003 13C11.4699 13 10.9612 12.7893 10.5861 12.4142C10.211 12.0391 10.0003 11.5304 10.0003 11C10.0003 10.4696 10.211 9.96085 10.5861 9.58578C10.9612 9.21071 11.4699 8.99999 12.0003 8.99999C12.5308 8.99999 13.0395 9.21071 13.4145 9.58578C13.7896 9.96085 14.0003 10.4696 14.0003 11C14.0003 11.5304 13.7896 12.0391 13.4145 12.4142C13.0395 12.7893 12.5308 13 12.0003 13Z"/></g></g><defs><clipPath id="a"><rect width="24" height="24" fill="white"/></clipPath></defs></svg>

<svg width="24" height="24" fill="none" xmlns="http://www.w3.org/2000/svg"><g clip-path="url(#a)"><path d="M5 13c0-5.088 2.903-9.436 7-11.182C16.097 3.564 19 7.912 19 13c0 .823-.076 1.626-.22 2.403l1.94 1.832a.5.5 0 0 1 .095.603l-2.495 4.575a.5.5 0 0 1-.793.114l-2.234-2.234a1 1 0 0 0-.707-.293H9.414a1 1 0 0 0-.707.293l-2.234 2.234a.5.5 0 0 1-.793-.114l-2.495-4.575a.5.5 0 0 1 .095-.603l1.94-1.832C5.077 14.626 5 13.823 5 13Zm1.476 6.696.817-.817A3 3 0 0 1 9.414 18h5.172a3 3 0 0 1 2.121.879l.817.817.982-1.8-1.1-1.04a2 2 0 0 1-.593-1.82c.124-.664.187-1.345.187-2.036 0-3.87-1.995-7.3-5-8.96C8.995 5.7 7 9.13 7 13c0 .691.063 1.372.187 2.037a2 2 0 0 1-.593 1.82l-1.1 1.039.982 1.8ZM12 13a2 2 0 1 1 0-4 2 2 0 0 1 0 4Z" /></g><defs><clipPath id="a"><path fill="#fff" d="M0 0h24v24H0z"/></clipPath></defs></svg>
